X: 070967
T: Galtee Rangers
S: "Music from Ireland 3" (Bulmer & Sharpley)
Z: B.Black
R: reel 
M: 4/4
L: 1/8
K: D
dB|: AFFE F2 DE|F2 FE FGAB|AFFE F2 DE|1 FBBA FE E2 :|2\
FAEG FD D2||
A3B AF F2|ABde feeg|fedc BcdB|ABde fddB|
A2 AB AF F2|ABde feeg|f2 af efdf|afea fd d2 :|
